!!!COM: Music21
!!!OTL: slide_Priest--The
!!!OMV: slide_Priest--The
**kern
*clefG2
*k[f#]
*G:
*M12/8
=1
8gg
=
8eeL
8dd
8bJ
4dd
8b
4dd
8b
4b
8gg
=
8eeL
8dd
8bJ
4dd
8b
4cc
8a
4a
8gg
=
8eeL
8dd
8bJ
4dd
8b
8bL
8a
8bJ
4.gg
=
8bL
8a
8bJ
4.gg
4b
8g
4g
8ryy
!!linebreak:original
=||
*M12/8
8gg
=
8eeL
8dd
8bJ
4dd
8b
4dd
8b
4b
8gg
=
8eeL
8dd
8bJ
4dd
8b
4cc
8a
4a
8gg
=
8eeL
8dd
8bJ
4dd
8b
8bL
8a
8bJ
4.gg
=
8bL
8a
8bJ
4.gg
4b
8g
4g
8ryy
!!linebreak:original
=||
8ff#
1ryy
4.ryy
=
8ggL
8aa
8ggJ
8ff#L
8gg
8ff#J
4gg
8ee
4ee
8dd
=
8eeL
8aa
8aaJ
8aaL
8gg
8aaJ
4bb
8ee
4ee
8ff#
=
8ggL
8aa
8ggJ
8ff#L
8gg
8ff#J
4gg
8ee
4ee
8dd
=
8bL
8a
8bJ
4.gg
4b
8g
4g
8ryy
!!linebreak:original
=||
8ff#
1ryy
4.ryy
=
8ggL
8aa
8ggJ
8ff#L
8gg
8ff#J
4gg
8ee
4ee
8dd
=
8eeL
8aa
8aaJ
8aaL
8gg
8aaJ
4bb
8ee
4ee
8ff#
=
8ggL
8aa
8ggJ
8ff#L
8gg
8ff#J
4gg
8ee
4ee
8dd
=
8bL
8a
8bJ
4.gg
4b
8g
4g
8ryy
=||
*-
